assets/img/img-pages/fran/conducting-analysis.svg

<svg width="84" height="85" viewBox="0 0 84 85" fill="none" xmlns="http://www.w3.org/2000/svg">
<path fill-rule="evenodd" clip-rule="evenodd" d="M18.0147 25.0142C15.4812 30.4781 16.4187 37.0501 18.1065 41.7264C15.3357 46.6784 13.4355 51.7066 12.2119 55.795L14.0962 56.3588C15.2322 52.5627 16.9512 47.9896 19.3968 43.4617C21.0194 45.106 23.0443 46.7639 25.3232 48.0683C25.741 52.4604 27.6315 56.7388 30.9949 60.1021C37.222 66.3293 46.5861 67.5078 54.0005 63.6376L56.9551 66.5922L57.6504 67.2875L58.3458 66.5922L60.4319 64.5061L60.6637 64.7379L69.4716 73.5458L70.8623 74.9365L72.2531 73.5458L73.1802 72.6186L74.5709 71.2279L73.1802 69.8372L64.3723 61.0293L64.1405 60.7975L65.9948 58.9432L66.6902 58.2478L65.9948 57.5524L62.8013 54.359C66.1084 47.1058 64.7777 38.2559 58.8094 32.2876C57.4483 30.9265 55.9373 29.8066 54.3296 28.9279C54.4128 28.8341 54.4976 28.7411 54.5838 28.6492C56.3569 26.7584 58.7412 25.3001 61.9603 25.2396C62.521 25.229 63.0335 24.885 63.2006 24.3496C63.3676 23.8143 63.147 23.2329 62.6617 22.9519C53.6376 17.7275 44.7292 15.6328 40.7386 15.4313C27.5327 14.7643 20.7926 19.0233 18.0147 25.0142ZM30.9949 32.2876C27.2764 36.006 25.3582 40.843 25.2401 45.7154C23.4033 44.5278 21.7524 43.1006 20.4034 41.6734C22.571 37.9771 25.2413 34.3846 28.4937 31.3508C32.3496 27.7541 37.013 24.9524 42.6277 23.6774C47.1226 22.6567 52.2668 22.6053 58.1455 23.9474C56.1171 24.6685 54.4671 25.8984 53.1491 27.3038C52.9216 27.5465 52.7038 27.7945 52.4953 28.0463C45.3531 25.0612 36.8075 26.475 30.9949 32.2876ZM19.799 25.8415C17.8281 30.0922 18.2181 35.2704 19.438 39.4659C21.5525 36.0557 24.1022 32.7575 27.1522 29.9125C31.2181 26.1201 36.1838 23.1239 42.1922 21.7594C46.0907 20.8742 50.4022 20.6818 55.1597 21.3846C48.8774 18.6825 43.3678 17.5334 40.6394 17.3956C27.8838 16.7514 22.1129 20.8513 19.799 25.8415ZM57.4187 33.6783C64.3314 40.591 64.3314 51.7987 57.4187 58.7114C50.506 65.6241 39.2983 65.6241 32.3856 58.7114C25.4729 51.7987 25.4729 40.591 32.3856 33.6783C39.2983 26.7656 50.506 26.7656 57.4187 33.6783ZM58.8094 60.1021C60.0099 58.9016 61.0228 57.5844 61.8481 56.1872L63.9087 58.2478L57.6504 64.5061L55.7497 62.6054C56.8309 61.8891 57.8568 61.0547 58.8094 60.1021ZM54.1736 36.9233C59.2941 42.0439 59.2941 50.3458 54.1736 55.4664C49.0531 60.5869 40.7511 60.5869 35.6306 55.4664C33.7534 53.5891 32.5644 51.2843 32.0636 48.8654H36.7554H37.3632L37.635 48.3218L39.6023 44.3872L40.9323 45.9072L41.8969 47.0096L42.552 45.6994L44.1658 42.4717L46.3242 48.2273L46.8604 49.6573L47.9403 48.5774L49.8673 46.6504L51.7943 48.5774L53.1851 47.1867L50.5627 44.5643L49.8673 43.8689L49.172 44.5643L47.6295 46.1068L45.2156 39.6696L44.4237 37.5581L43.4152 39.5751L41.4479 43.5097L40.1179 41.9897L39.1533 40.8873L38.4983 42.1975L36.1477 46.8986H31.809C31.6174 43.3125 32.8913 39.6627 35.6306 36.9233C40.7511 31.8028 49.0531 31.8028 54.1736 36.9233ZM55.5644 35.5326C61.4529 41.4212 61.4529 50.9685 55.5644 56.8571C49.6758 62.7457 40.1285 62.7457 34.2399 56.8571C28.3513 50.9685 28.3513 41.4212 34.2399 35.5326C40.1285 29.644 49.6758 29.644 55.5644 35.5326ZM62.0544 63.3471L62.9816 62.42L71.7895 71.2279L70.8623 72.1551L62.0544 63.3471Z" fill="#1D3557"/>
</svg>

<svg width="84" height="85" fill="none" xmlns="http://www.w3.org/2000/svg"><path fill-rule="evenodd" clip-rule="evenodd" d="M18.015 25.014c-2.534 5.464-1.596 12.036.091 16.712-2.77 4.952-4.67 9.98-5.894 14.069l1.884.564c1.136-3.796 2.855-8.37 5.3-12.897 1.623 1.644 3.648 3.302 5.927 4.606a19.587 19.587 0 0 0 5.672 12.034C37.222 66.33 46.586 67.508 54 63.638l2.954 2.954.695.695.696-.695 2.086-2.086.232.232 8.808 8.808 1.39 1.39 1.391-1.39.927-.927 1.39-1.391-1.39-1.39-8.808-8.809-.231-.232 1.854-1.854.695-.695-.695-.696L62.8 54.36c3.307-7.253 1.977-16.103-3.992-22.071a19.675 19.675 0 0 0-4.48-3.36c.084-.094.169-.187.255-.279 1.773-1.89 4.157-3.349 7.376-3.41.561-.01 1.073-.354 1.24-.89a1.2 1.2 0 0 0-.538-1.397c-9.024-5.225-17.933-7.32-21.923-7.52-13.206-.668-19.946 3.591-22.724 9.582Zm12.98 7.274a19.6 19.6 0 0 0-5.755 13.427 26.74 26.74 0 0 1-4.837-4.042c2.168-3.696 4.838-7.288 8.09-10.322 3.857-3.597 8.52-6.399 14.135-7.674 4.495-1.02 9.639-1.072 15.517.27-2.028.722-3.678 1.951-4.996 3.357-.227.243-.445.49-.654.742-7.142-2.985-15.688-1.571-21.5 4.242Zm-11.196-6.446c-1.97 4.25-1.58 9.428-.361 13.624 2.114-3.41 4.664-6.709 7.714-9.553 4.066-3.793 9.032-6.79 15.04-8.154 3.899-.885 8.21-1.077 12.968-.374-6.283-2.703-11.792-3.852-14.52-3.99-12.756-.644-18.527 3.456-20.841 8.447Zm37.62 7.836c6.912 6.913 6.912 18.12 0 25.033-6.913 6.913-18.12 6.913-25.033 0-6.913-6.912-6.913-18.12 0-25.033 6.912-6.912 18.12-6.912 25.033 0Zm1.39 26.424c1.2-1.2 2.214-2.518 3.04-3.915l2.06 2.06-6.259 6.26-1.9-1.902a19.756 19.756 0 0 0 3.06-2.503Zm-4.635-23.179c5.12 5.12 5.12 13.423 0 18.543-5.12 5.12-13.423 5.12-18.543 0a13.051 13.051 0 0 1-3.567-6.6H37.363l.272-.544 1.967-3.935 1.33 1.52.965 1.103.655-1.31 1.614-3.228 2.158 5.755.536 1.43 1.08-1.08 1.927-1.927 1.927 1.927 1.391-1.39-2.622-2.623-.696-.695-.695.695-1.542 1.543-2.414-6.437-.792-2.112-1.009 2.017-1.967 3.935-1.33-1.52-.965-1.103-.655 1.31-2.35 4.702h-4.339a13.08 13.08 0 0 1 3.822-9.976c5.12-5.12 13.422-5.12 18.543 0Zm1.39-1.39c5.889 5.888 5.889 15.435 0 21.324-5.888 5.889-15.435 5.889-21.324 0-5.889-5.889-5.889-15.436 0-21.324 5.889-5.889 15.436-5.889 21.324 0Zm6.49 27.814.928-.927 8.808 8.808-.928.927-8.808-8.808Z" fill="#1D3557"/></svg>
